X: 244
T:Humors of Lisheen
R:jig
M:6/8
L:1/8
K:G
d|efg edB|cBA BGE|GFG BdB|BAG ABd|
g2g edB|cBA BGE|G3 BdB|AGF GB:|
D|GBd g2g|agf g2e|fed edB|cBA BGE|
G/A/Bd gfg|agf g2e|fed BdB| AGF G2 :|
